Adwaita++/apps/scalable/todoist.svg

<svg height="128" width="128" xmlns="http://www.w3.org/2000/svg" xmlns:xlink="http://www.w3.org/1999/xlink">
  <linearGradient id="e" gradientTransform="matrix(1.0015 0 0 .99993 72.09 56.015)" gradientUnits="userSpaceOnUse" x1="43.844" x2="-60" y1="234" y2="234">
    <stop offset="0" stop-color="#d5d3cf"/>
    <stop offset=".038" stop-color="#e3e2df"/>
    <stop offset=".077" stop-color="#c0bfbc"/>
    <stop offset=".923" stop-color="#c0bfbc"/>
    <stop offset=".962" stop-color="#e3e2df"/>
    <stop offset="1" stop-color="#d5d3cf"/>
  </linearGradient>
  <g transform="translate(0 -172)">
    <g>
      <rect fill="url(#e)" height="48" rx="8" width="104" x="12" y="240"/>
      <path d="m20 10c-4.432 0-8 3.568-8 8v42 42c0 4.432 3.568 8 8 8h44 44c4.432 0 8-3.568 8-8v-42-42c0-4.432-3.568-8-8-8z" fill="#f6f5f4" transform="translate(0 172)"/>
      <g enable-background="new" transform="matrix(.28822009 0 0 .28822009 -.802775 169.39356)">
        <path d="m224.62877 43.933713h-116.24712l.33941 28.637495h115.36711z" fill="#4fbab5"/>
        <path d="m340.14674 43.933713h-102.39349-12.87305-.50286l-.28913 28.637495h115.37969z" fill="#ed4154"/>
      </g>
      <path clip-rule="evenodd" d="m71.210426 62.665906c-.423969-.393872-.745871-.684369-1.058613-.984026-10.137296-9.738189-20.262815-19.488156-30.414505-29.210642-4.650568-4.452977-11.787371-4.289409-16.218103.314051-4.363997 4.534106-4.303804 11.715399.285263 16.150057 13.1548 12.708587 26.347547 25.379225 39.562541 38.02631 4.403252 4.213514 11.182823 4.170332 15.648886.01047 1.78878-1.665777 3.533072-3.378662 5.295682-5.073228 11.29928-10.859612 22.592023-21.727076 33.903083-32.573603 2.71785-2.606621 4.14155-5.75498 3.78432-9.503961-.45407-4.767026-2.96778-8.198031-7.48095-9.841563-4.49878-1.638298-8.5906-.649038-12.06217 2.666814-5.6817 5.426534-11.337233 10.883165-17.003233 16.32802-4.714687 4.53149-9.431991 9.066906-14.242201 13.691303zm-.02879-76.471352c22.766061 0 45.532124-.0065 68.298184.0039 7.05437.0039 13.11817 4.5550441 14.87554 11.168429.27741 1.044219.45145 2.149939.45276 3.22818.0105 17.788358.0981 35.578023-.0628 53.36507-.16357 18.173069-5.66077 34.62671-16.84752 48.993227-12.44819 15.98913-28.50273 26.51899-48.289233 31.09236-45.432675 10.49845-88.833177-18.82473-99.546234-59.865929-1.427622-5.471026-2.401179-11.023181-2.448287-16.673477-.157025-18.922865-.274794-37.845728-.266943-56.767286.0039-7.965112 7.109324-14.534006 15.4054977-14.540549 22.8092423-.01439 45.6197943-.0039 68.4290383-.0039z" fill="#f43b53" fill-rule="evenodd" transform="matrix(.41792396 0 0 .41792396 36.32997571833 207.16368915057)"/>
      <path d="m20 10c-4.432 0-8 3.568-8 8v42 42c0 4.432 3.568 8 8 8h44 44c4.432 0 8-3.568 8-8v-42-42c0-4.432-3.568-8-8-8z" fill="#f6f5f4" transform="translate(0 172)"/>
    </g>
    <g>
      <rect fill="url(#e)" height="48" rx="8" width="104" x="12" y="240"/>
      <path d="m20 10c-4.432 0-8 3.568-8 8v42 42c0 4.432 3.568 8 8 8h44 44c4.432 0 8-3.568 8-8v-42-42c0-4.432-3.568-8-8-8z" fill="#c2352a" transform="translate(0 172)"/>
      <path d="m74.739883 197.00656a5.2476791 5.2476791 0 0 0 -2.336653.70381l-41.374183 23.16576-19.029047-8.9552v11.59968l17.004761 7.99989a5.2476791 5.2476791 0 0 0 4.79609-.16791l43.72483-24.4873a5.2476791 5.2476791 0 0 0 -2.2597-9.85873 5.2476791 5.2476791 0 0 0 -.524699 0zm0 17.48994a5.2476791 5.2476791 0 0 0 -2.336653.70239l-41.374183 23.16718-19.029047-8.95485v11.59931l17.004761 7.99991a5.2476791 5.2476791 0 0 0 4.79609-.16791l43.72483-24.4859a5.2476791 5.2476791 0 0 0 -2.2597-9.86013 5.2476791 5.2476791 0 0 0 -.524699 0zm0 17.48924a5.2476791 5.2476791 0 0 0 -2.336653.70309l-41.374183 23.16716-19.029047-8.95483v11.59931l17.004761 7.9999a5.2476791 5.2476791 0 0 0 4.79609-.1679l43.72483-24.48591a5.2476791 5.2476791 0 0 0 -2.2597-9.86082 5.2476791 5.2476791 0 0 0 -.524699 0z" fill="#fff" fill-rule="evenodd"/>
    </g>
  </g>
</svg>

<svg xmlns="http://www.w3.org/2000/svg" xmlns:xlink="http://www.w3.org/1999/xlink" width="128" height="128" version="1.0">
 <defs>
  <linearGradient id="a">
   <stop id="stop2" offset="0" stop-color="#68676b"/>
   <stop id="stop4" offset=".8" stop-color="#424048"/>
   <stop id="stop6" offset="1" stop-color="#241f31"/>
  </linearGradient>
  <radialGradient id="d" cx="279.422" cy="446.483" r="224" fx="279.422" fy="446.483" gradientTransform="matrix(1.34416 .0006 -.00062 1.38763 -121.22 -718.103)" gradientUnits="userSpaceOnUse" xlink:href="#a"/>
  <linearGradient id="e" x1="43.844" x2="-60" y1="234" y2="234" gradientTransform="matrix(1.0015 0 0 .99993 72.09 56.015)" gradientUnits="userSpaceOnUse" xlink:href="#b"/>
  <linearGradient id="b">
   <stop id="stop11" offset="0" stop-color="#d5d3cf"/>
   <stop id="stop13" offset=".038" stop-color="#e3e2df"/>
   <stop id="stop15" offset=".077" stop-color="#c0bfbc"/>
   <stop id="stop17" offset=".923" stop-color="#c0bfbc"/>
   <stop id="stop19" offset=".962" stop-color="#e3e2df"/>
   <stop id="stop21" offset="1" stop-color="#d5d3cf"/>
  </linearGradient>
 </defs>
 <g transform="translate(0 -172)">
  <rect fill="url(#e)" width="104" height="48" x="12" y="240" rx="8" ry="8"/>
  <path style="fill:#f6f5f4" d="M 20 10 C 15.568 10 12 13.568 12 18 L 12 60 L 12 102 C 12 106.432 15.568 110 20 110 L 64 110 L 108 110 C 112.432 110 116 106.432 116 102 L 116 60 L 116 18 C 116 13.568 112.432 10 108 10 L 20 10 z" transform="translate(0,172)"/>
  <g style="enable-background:new" transform="matrix(0.28822009,0,0,0.28822009,-0.80277503,169.39356)">
   <path style="fill:#4fbab5" d="M 224.62877,43.933713 H 108.38165 l 0.33941,28.637495 h 115.36711 z"/>
   <path style="fill:#ed4154" d="M 340.14674,43.933713 H 237.75325 224.8802 224.37734 l -0.28913,28.637495 H 339.4679 Z"/>
  </g>
  <g style="enable-background:new" transform="matrix(0.41792396,0,0,0.41792396,10.871879,182.86569)">
   <g transform="translate(60.915619,58.139761)">
    <path style="clip-rule:evenodd;fill:#f43b53;fill-rule:evenodd" d="M 71.210426,62.665906 C 70.786457,62.272034 70.464555,61.981537 70.151813,61.68188 60.014517,51.943691 49.888998,42.193724 39.737308,32.471238 35.08674,28.018261 27.949937,28.181829 23.519205,32.785289 c -4.363997,4.534106 -4.303804,11.715399 0.285263,16.150057 13.1548,12.708587 26.347547,25.379225 39.562541,38.02631 4.403252,4.213514 11.182823,4.170332 15.648886,0.01047 1.78878,-1.665777 3.533072,-3.378662 5.295682,-5.073228 11.29928,-10.859612 22.592023,-21.727076 33.903083,-32.573603 2.71785,-2.606621 4.14155,-5.75498 3.78432,-9.503961 -0.45407,-4.767026 -2.96778,-8.198031 -7.48095,-9.841563 -4.49878,-1.638298 -8.5906,-0.649038 -12.06217,2.666814 -5.6817,5.426534 -11.337233,10.883165 -17.003233,16.32802 -4.714687,4.53149 -9.431991,9.066906 -14.242201,13.691303 z m -0.02879,-76.471352 c 22.766061,0 45.532124,-0.0065 68.298184,0.0039 7.05437,0.0039 13.11817,4.5550441 14.87554,11.168429 0.27741,1.044219 0.45145,2.149939 0.45276,3.22818 0.0105,17.788358 0.0981,35.578023 -0.0628,53.36507 -0.16357,18.173069 -5.66077,34.62671 -16.84752,48.993227 -12.44819,15.98913 -28.50273,26.51899 -48.289233,31.09236 C 44.175892,144.54417 0.77539,115.22099 -9.937667,74.179791 -11.365289,68.708765 -12.338846,63.15661 -12.385954,57.506314 -12.542979,38.583449 -12.660748,19.660586 -12.652897,0.739028 c 0.0039,-7.965112 7.109324,-14.534006 15.4054977,-14.540549 22.8092423,-0.01439 45.6197943,-0.0039 68.4290383,-0.0039 z"/>
   </g>
  </g>
  <path d="M 20 10 C 15.568 10 12 13.568 12 18 L 12 60 L 12 102 C 12 106.432 15.568 110 20 110 L 64 110 L 108 110 C 112.432 110 116 106.432 116 102 L 116 60 L 116 18 C 116 13.568 112.432 10 108 10 L 20 10 z" transform="translate(0,172)" style="fill:#f6f5f4"/>
 </g>
 <g transform="translate(0 -172)">
  <rect fill="url(#e)" width="104" height="48" x="12" y="240" rx="8" ry="8"/>
  <path d="M 20 10 C 15.568 10 12 13.568 12 18 L 12 60 L 12 102 C 12 106.432 15.568 110 20 110 L 64 110 L 108 110 C 112.432 110 116 106.432 116 102 L 116 60 L 116 18 C 116 13.568 112.432 10 108 10 L 20 10 z" transform="translate(0,172)" style="fill:#c2352a"/>
  <path style="fill:#ffffff;fill-rule:evenodd" d="m 74.739883,197.00656 a 5.2476791,5.2476791 0 0 0 -2.336653,0.70381 L 31.029047,220.87613 12,211.92093 v 11.59968 l 17.004761,7.99989 a 5.2476791,5.2476791 0 0 0 4.79609,-0.16791 l 43.72483,-24.4873 a 5.2476791,5.2476791 0 0 0 -2.2597,-9.85873 5.2476791,5.2476791 0 0 0 -0.524699,0 z m 0,17.48994 a 5.2476791,5.2476791 0 0 0 -2.336653,0.70239 L 31.029047,238.36607 12,229.41122 v 11.59931 l 17.004761,7.99991 a 5.2476791,5.2476791 0 0 0 4.79609,-0.16791 l 43.72483,-24.4859 a 5.2476791,5.2476791 0 0 0 -2.2597,-9.86013 5.2476791,5.2476791 0 0 0 -0.524699,0 z m 0,17.48924 a 5.2476791,5.2476791 0 0 0 -2.336653,0.70309 L 31.029047,255.85599 12,246.90116 v 11.59931 l 17.004761,7.9999 a 5.2476791,5.2476791 0 0 0 4.79609,-0.1679 l 43.72483,-24.48591 a 5.2476791,5.2476791 0 0 0 -2.2597,-9.86082 5.2476791,5.2476791 0 0 0 -0.524699,0 z"/>
 </g>
</svg>
